assets/img/min/broccoli.svg

<?xml version="1.0" encoding="UTF-8" standalone="no"?>
<svg width="256px" height="266px" viewBox="0 0 256 266" version="1.1" xmlns="http://www.w3.org/2000/svg" xmlns:xlink="http://www.w3.org/1999/xlink" preserveAspectRatio="xMidYMid">
    <g>
        <path d="M99.3160509,250.602761 C100.544931,253.119401 102.628099,255.884041 104.841261,257.787347 C107.545789,260.113214 110.916152,261.758067 114.482819,263.078494 C116.972883,264.00036 120.263085,264.80372 122.924179,265.28164 C125.682242,265.777 129.068349,265.767934 132.259677,265.732947 C137.930776,265.670654 142.406797,265.142867 147.458765,263.912147 C150.641687,263.136734 153.664642,262.276094 156.119021,261.310387 C160.752503,259.487294 163.706493,257.463081 164.32293,256.149641 C163.860178,253.978334 163.132557,250.559454 162.590583,247.486441 C162.017111,244.234814 161.635303,241.329961 161.387725,239.181587 C160.693879,233.160766 161.050802,228.924809 161.820061,221.921262 C162.95301,211.606516 165.155869,206.907769 168.372077,200.778084 C171.443794,194.923769 176.514631,186.740922 180.422444,181.469535 C184.496135,175.974388 194.695548,165.234725 198.416023,161.243669 C199.713953,161.627551 202.220017,162.463306 206.095425,163.22841 C209.049004,163.811519 212.488087,164.506287 216.815585,164.360575 C227.119702,164.013615 230.87062,162.043509 236.864465,158.135866 C242.302742,154.590426 247.506107,147.496282 250.230753,140.698304 C252.325777,135.471232 252.970241,130.149269 252.058529,123.90361 C251.445249,119.702347 250.087787,114.727579 249.003019,111.437861 C247.823067,107.859461 245.970481,104.015973 244.414646,101.107237 C244.414646,101.107237 250.669857,93.6336963 253.172891,87.398875 C255.328379,82.0297764 256.333142,75.1212699 255.901873,70.8034139 C255.454273,66.322038 251.650049,58.1005128 249.259126,55.1664062 C246.109137,51.3007907 243.029355,47.2930468 239.138331,44.1501189 C235.324401,41.0694629 231.005265,38.5478363 226.481388,36.6581136 C221.794076,34.7001137 216.18647,33.566887 211.742097,32.785751 C211.074604,29.2252817 210.154796,26.7430311 207.704673,22.4587272 C204.64574,16.9568126 201.285372,14.4717566 196.004012,10.6049833 C189.451436,5.80748528 180.318407,0.858311913 171.453676,0.180850552 C167.634583,-0.111010777 162.036343,-0.231698775 154.996002,1.28247724 C148.874546,2.5990265 142.840258,5.08618913 138.25157,7.43047139 C129.039064,3.90212515 120.432109,4.42335714 113.641693,6.26725541 C107.91556,7.82215138 106.693725,8.75493004 101.454381,11.8381353 C96.3107016,14.0603593 90.722931,19.2271699 86.3958484,25.2095111 C70.279438,25.6671378 56.8641102,31.335959 47.3128436,36.7561936 C36.4486534,42.9215002 26.7002215,54.7054942 22.8831378,62.2013874 C18.6229219,70.5674939 14.3676852,82.4010724 17.9622883,100.701365 C-5.77938866,115.298661 -3.33761393,138.647546 10.0093338,151.68473 C21.7147469,163.118474 41.1065808,166.681258 59.4731288,164.828858 C64.9609634,170.391258 85.7194004,195.5397 85.7194004,195.5397 C85.7194004,195.5397 106.628467,219.103614 99.3160509,250.602761 L99.3160509,250.602761 Z M76.7902539,153.058618 C79.6313472,150.21753 82.0665631,146.158826 83.9606271,143.047157 C86.1101417,143.166576 90.524195,143.456218 94.8639389,143.256773 C99.2155335,143.056784 103.827224,142.413909 105.671283,141.336213 C106.188712,142.888496 109.789587,155.74417 110.018221,163.643775 C110.317971,174.000634 110.029421,175.836351 108.355283,179.471604 C107.443939,179.902356 106.557624,180.090212 105.439016,179.688676 C101.454541,178.258415 94.8147816,173.28202 90.0537097,168.840842 C82.6809524,161.96345 76.7902539,153.058618 76.7902539,153.058618 L76.7902539,153.058618 Z M158.863906,150.870917 C158.721527,152.128591 158.629842,156.645098 159.238173,160.589535 C159.856066,164.595957 160.461997,168.318885 161.972999,169.76466 C167.282381,168.808015 170.990892,165.401621 174.195655,163.01001 C174.195655,163.01001 184.597666,154.888826 186.60662,153.02337 C185.07598,151.636234 182.923532,148.383642 182.158215,146.422517 C182.158215,146.422517 174.838306,148.566725 171.155223,149.332042 C166.51549,150.336517 161.064194,150.775253 158.863906,150.870917 L158.863906,150.870917 Z" fill="#598527"></path>
    </g>
</svg>

<svg width="256" height="266" viewBox="0 0 256 266" xmlns="http://www.w3.org/2000/svg" preserveAspectRatio="xMidYMid"><path d="M99.316 250.603c1.229 2.516 3.312 5.281 5.525 7.184 2.705 2.326 6.075 3.971 9.642 5.291 2.49.922 5.78 1.726 8.441 2.204 2.758.495 6.144.486 9.336.45 5.67-.061 10.147-.59 15.199-1.82 3.183-.775 6.206-1.636 8.66-2.602 4.634-1.823 7.587-3.847 8.204-5.16-.463-2.172-1.19-5.59-1.732-8.664a141.342 141.342 0 0 1-1.203-8.304c-.694-6.021-.337-10.257.432-17.26 1.133-10.315 3.336-15.014 6.552-21.144 3.072-5.854 8.143-14.037 12.05-19.308 4.074-5.496 14.274-16.235 17.994-20.226 1.298.384 3.804 1.22 7.68 1.984 2.953.584 6.392 1.278 10.72 1.133 10.304-.347 14.055-2.317 20.048-6.225 5.439-3.546 10.642-10.64 13.367-17.438 2.095-5.227 2.74-10.549 1.828-16.794-.614-4.202-1.971-9.176-3.056-12.466-1.18-3.579-3.033-7.422-4.588-10.33 0 0 6.255-7.474 8.758-13.71 2.155-5.368 3.16-12.277 2.729-16.595-.448-4.481-4.252-12.702-6.643-15.637-3.15-3.865-6.23-7.873-10.12-11.016-3.815-3.08-8.134-5.602-12.658-7.492-4.687-1.958-10.295-3.091-14.739-3.872-.667-3.56-1.587-6.043-4.037-10.327-3.06-5.502-6.42-7.987-11.701-11.854-6.553-4.798-15.686-9.747-24.55-10.424-3.82-.292-9.418-.413-16.458 1.101-6.121 1.317-12.156 3.804-16.744 6.148-9.213-3.528-17.82-3.007-24.61-1.163-5.726 1.555-6.948 2.488-12.188 5.571-5.143 2.222-10.731 7.39-15.058 13.372-16.117.457-29.532 6.126-39.083 11.546-10.864 6.166-20.613 17.95-24.43 25.445-4.26 8.366-8.515 20.2-4.92 38.5-23.742 14.598-21.3 37.947-7.954 50.984 11.706 11.433 31.098 14.996 49.464 13.144 5.488 5.562 26.246 30.71 26.246 30.71s20.91 23.565 13.597 55.064zM76.79 153.059c2.841-2.841 5.277-6.9 7.17-10.012 2.15.12 6.564.41 10.904.21 4.352-.2 8.963-.843 10.807-1.92.518 1.551 4.119 14.407 4.347 22.307.3 10.357.011 12.192-1.663 15.828-.911.43-1.797.618-2.916.217-3.984-1.43-10.624-6.407-15.385-10.848-7.373-6.878-13.264-15.782-13.264-15.782zm82.074-2.188c-.142 1.258-.234 5.774.374 9.719.618 4.006 1.224 7.729 2.735 9.175 5.31-.957 9.018-4.363 12.223-6.755 0 0 10.402-8.121 12.41-9.987-1.53-1.387-3.682-4.64-4.448-6.6 0 0-7.32 2.144-11.003 2.909-4.64 1.005-10.09 1.443-12.291 1.539z" fill="#598527"/></svg>
